X:1
T:Title
%%score { 1 | 2 }
L:1/8
M:3/4
K:D
V:1 treble nm="Grand Piano"
V:2 bass 
V:1
 z2 z2[Q:1/4=100] [FA]>[FA] | [FA]3 [Fd] [Gd]>[GB] | [GB] [FA]3 [DF]>[DA] | [CA]3 [CB] [CA]>[CG] | %4
[M:2/4] [DF]4 |[M:1/4] [FA]>[FA] |[M:3/4] [GB]3 [Ac] [Bd]>[GB] | [FA] F3 F>F | E3 E c>B | %9
[M:2/4] [CEA]4 |[M:1/4] e>^d |[M:3/4] e3 c B>c | [Fd] [FA]3 FF | G3 G [CA]>[CG] |[M:2/4] [DF]4 | %15
[M:1/4] [FA]>[Fd] |[M:3/4] d3 c dB | [GB] [FA]3 [DF]>[DF] | [DA]3 [A,DF] [G,CE]>[G,CF] | %19
[M:2/4][K:bass] [F,D]4 |] %20
V:2
 z2 z2 [D,D]>[D,D] | [D,D]3 [D,A,] [D,B,]>[D,D] | [D,D] [D,D]3 [D,A,]>[D,F,] | %3
 [A,,E,]3 [A,,E,] [A,,E,]>[A,,A,] |[M:2/4] [D,A,]4 |[M:1/4] [D,D]>[D,D] | %6
[M:3/4] [G,D]3 [G,D] [G,D]>[G,D] | [D,D] [D,A,D]3 [D,A,D]>[D,A,D] | [E,A,C]3 [E,C] [E,E]>[E,DE] | %9
[M:2/4] [A,,A,]4 |[M:1/4][K:treble] [A,CG]>[A,=CG] |[M:3/4] [A,CG]3 [A,EG] [A,DG]>[A,G] | %12
 [D,A,] [D,D]3 [D,A,D][D,A,D] | [E,A,C]3 [E,A,C] [A,,A,]>[A,,A,] |[M:2/4] [D,A,]4 | %15
[M:1/4] [D,D]>[D,=C] |[M:3/4][K:treble] [G,B,G]3 [G,^A,G] [G,B,G][G,DG] | %17
 [D,D] [D,D]3 [D,A,]>[D,A,] | [A,,F,]3 A,, A,,>A,, |[M:2/4] D,4 |] %20

